dist/img/svg/unreal.svg

<svg width="80" height="80" viewBox="0 0 80 80"  xmlns="http://www.w3.org/2000/svg">
<path d="M39.9966 0C18.0899 0 0.333252 17.91 0.333252 40C0.333252 62.0933 18.0899 80 39.9966 80C61.8999 80 79.6599 62.0933 79.6599 40C79.6599 17.91 61.8999 0 39.9933 0H39.9966ZM39.9966 1.76C50.1232 1.76 59.6466 5.74 66.8066 12.96C70.3445 16.5158 73.1465 20.7343 75.0523 25.3741C76.9581 30.0139 77.9303 34.984 77.9133 40C77.9133 50.2133 73.9699 59.8167 66.8066 67.04C63.3075 70.5955 59.1344 73.4173 54.5315 75.3404C49.9286 77.2635 44.9884 78.2493 39.9999 78.24C35.0103 78.2504 30.0688 77.2651 25.4646 75.342C20.8605 73.4188 16.6864 70.5964 13.1866 67.04C9.64825 63.4844 6.84572 59.266 4.93934 54.6262C3.03296 49.9864 2.06016 45.0162 2.07659 40C2.07659 29.7867 6.02325 20.1833 13.1833 12.96C16.6833 9.40305 20.858 6.58032 25.4627 4.65714C30.0675 2.73397 35.0097 1.74902 39.9999 1.76H39.9966ZM38.0133 15.8367C31.5533 17.57 25.5733 20.89 17.6033 30.03C9.62992 39.17 11.1433 46.7167 11.1433 46.7167C11.1433 46.7167 13.3433 41.5233 18.6333 36.0533C21.1399 33.4633 23.0133 32.5967 24.2933 32.5933C24.5655 32.5778 24.8381 32.6183 25.0941 32.7124C25.35 32.8064 25.584 32.952 25.7815 33.1401C25.9789 33.3282 26.1357 33.5548 26.2421 33.8059C26.3485 34.057 26.4022 34.3273 26.3999 34.6V53.1567C26.3999 54.99 25.2199 55.3867 24.1333 55.3667C23.2033 55.35 22.3433 55.0267 22.3433 55.0267C27.7766 62.92 40.7632 64.0267 40.7632 64.0267L46.4666 57.9333L46.5999 58.05L51.8266 62.5033C61.3799 56.8267 65.9866 46.3033 65.9866 46.3033C61.7232 50.8133 59.0066 51.8667 57.3932 51.86C55.9632 51.85 55.4033 51.01 55.4033 51.01C55.3266 50.62 55.1932 44.9767 55.1432 39.3267C55.0966 33.4733 55.1399 27.6167 55.4332 27.6C57.0799 24.5033 62.3432 18.26 62.3432 18.26C52.5166 20.1967 47.1566 26.6367 47.1566 26.6367C45.5732 25.39 42.3433 25.6 42.3433 25.6C43.8566 26.4333 45.3666 28.8533 45.3666 30.86V50.5933C45.3666 50.5933 42.0666 53.5033 39.5266 53.5033C38.0233 53.5033 37.0966 52.68 36.5899 52.0067C36.3876 51.7423 36.2196 51.4533 36.0899 51.1467V26.7767C35.7385 27.0349 35.3159 27.1781 34.8799 27.1867C34.3399 27.1867 33.7799 26.9133 33.3999 26.12C33.1133 25.52 32.9299 24.62 32.9299 23.3133C32.9299 18.8133 38.0133 15.8367 38.0133 15.8367Z" />
</svg>

<svg width="80" height="80" viewBox="0 0 80 80" xmlns="http://www.w3.org/2000/svg"><path d="M39.997 0C18.09 0 .333 17.91.333 40c0 22.093 17.757 40 39.664 40C61.9 80 79.66 62.093 79.66 40c0-22.09-17.76-40-39.667-40h.004zm0 1.76c10.126 0 19.65 3.98 26.81 11.2A38.153 38.153 0 0177.913 40c0 10.213-3.943 19.817-11.106 27.04A37.512 37.512 0 0140 78.24a37.51 37.51 0 01-26.813-11.2A38.157 38.157 0 012.077 40c0-10.213 3.946-19.817 11.106-27.04A37.506 37.506 0 0140 1.76h-.003zm-1.984 14.077c-6.46 1.733-12.44 5.053-20.41 14.193-7.973 9.14-6.46 16.687-6.46 16.687s2.2-5.194 7.49-10.664c2.507-2.59 4.38-3.456 5.66-3.46A1.993 1.993 0 0126.4 34.6v18.557c0 1.833-1.18 2.23-2.267 2.21a6.09 6.09 0 01-1.79-.34c5.434 7.893 18.42 9 18.42 9l5.704-6.094.133.117 5.227 4.453c9.553-5.676 14.16-16.2 14.16-16.2-4.264 4.51-6.98 5.564-8.594 5.557-1.43-.01-1.99-.85-1.99-.85-.076-.39-.21-6.033-.26-11.683-.046-5.854-.003-11.71.29-11.727 1.647-3.097 6.91-9.34 6.91-9.34-9.826 1.937-15.186 8.377-15.186 8.377-1.584-1.247-4.814-1.037-4.814-1.037 1.514.833 3.024 3.253 3.024 5.26v19.733s-3.3 2.91-5.84 2.91c-1.504 0-2.43-.823-2.937-1.496a3.944 3.944 0 01-.5-.86v-24.37a2.114 2.114 0 01-1.21.41c-.54 0-1.1-.274-1.48-1.067-.287-.6-.47-1.5-.47-2.807 0-4.5 5.083-7.476 5.083-7.476z"/></svg>
